svgs/sharp-regular/send-back.svg

<svg xmlns="http://www.w3.org/2000/svg" viewBox="0 0 640 512"><!--! Font Awesome Pro 6.6.0 by @fontawesome - https://fontawesome.com License - https://fontawesome.com/license (Commercial License) Copyright 2024 Fonticons, Inc. --><path d="M208 48l0 160L48 208 48 48l160 0zM48 0L0 0 0 48 0 208l0 48 48 0 160 0 48 0 0-48 0-160 0-48L208 0 48 0zM592 304l0 160-160 0 0-160 160 0zM432 256l-48 0 0 48 0 160 0 48 48 0 160 0 48 0 0-48 0-160 0-48-48 0-160 0zM160 288l0 128 192 0 0-160 0-32 32 0 96 0 0-128L288 96l0 160 0 32-32 0-96 0z"/></svg>

<svg xmlns="http://www.w3.org/2000/svg" viewBox="0 0 640 512"><!--! Font Awesome Pro 6.4.2 by @fontawesome - https://fontawesome.com License - https://fontawesome.com/license (Commercial License) Copyright 2023 Fonticons, Inc. --><path d="M208 48V208H48V48H208zM48 0H0V48 208v48H48 208h48V208 48 0H208 48zM592 304V464H432V304H592zM432 256H384v48V464v48h48H592h48V464 304 256H592 432zM160 288V416H352V256 224h32 96V96H288V256v32H256 160z"/></svg>
